icons/svg/remote-desktop-control_14.svg

<svg width="14" height="14" viewBox="0 0 14 14" fill="none" xmlns="http://www.w3.org/2000/svg">
<path fill-rule="evenodd" clip-rule="evenodd" d="M12.3 0.999756H1.7C0.761 0.999756 0 1.76076 0 2.69976V9.29976C0 10.2388 0.761 10.9998 1.7 10.9998H5.5V11.4998C5.5 11.7758 5.276 11.9998 5 11.9998C4.724 11.9998 4.5 12.2238 4.5 12.4998C4.5 12.7768 4.724 12.9998 5 12.9998H9C9.276 12.9998 9.5 12.7768 9.5 12.4998C9.5 12.2238 9.276 11.9998 9 11.9998C8.724 11.9998 8.5 11.7758 8.5 11.4998V10.9998H12.3C13.239 10.9998 14 10.2388 14 9.29976V2.69976C14 1.76076 13.239 0.999756 12.3 0.999756ZM7.586 11.9998H6.414C6.47 11.8438 6.5 11.6748 6.5 11.4998V10.9998H7.5V11.4998C7.5 11.6748 7.53 11.8438 7.586 11.9998ZM13 9.29976C13 9.68576 12.686 9.99976 12.3 9.99976H1.7C1.314 9.99976 1 9.68576 1 9.29976V2.69976C1 2.31476 1.314 1.99976 1.7 1.99976H12.3C12.686 1.99976 13 2.31476 13 2.69976V9.29976ZM8.312 3.03656C8.124 3.11456 8.001 3.29756 8.001 3.50056V7.59056C8.001 7.76356 8.09 7.92456 8.238 8.01656C8.318 8.06556 8.409 8.09056 8.501 8.09056C8.577 8.09056 8.654 8.07356 8.725 8.03756L9.694 7.55256L10.333 8.73756C10.423 8.90556 10.596 8.99956 10.773 8.99956C10.854 8.99956 10.935 8.98056 11.011 8.94056C11.253 8.80856 11.344 8.50556 11.213 8.26256L10.589 7.10556L11.451 6.67456C11.594 6.60356 11.694 6.46756 11.721 6.31056C11.747 6.15256 11.696 5.99256 11.585 5.87756C8.662 2.89356 8.662 2.89556 8.312 3.03656ZM9.001 4.68256C9.417 5.10056 9.93 5.61956 10.39 6.08756L9.001 6.78256V4.68256Z" fill="#121212"/>
</svg>

<?xml version="1.0" encoding="utf-8"?>
<!-- Generator: Adobe Illustrator 23.0.2, SVG Export Plug-In . SVG Version: 6.00 Build 0)  -->
<svg version="1.1" id="Layer_1" xmlns="http://www.w3.org/2000/svg" xmlns:xlink="http://www.w3.org/1999/xlink" x="0px" y="0px"
	 viewBox="0 0 14 14" style="enable-background:new 0 0 14 14;" xml:space="preserve">
<style type="text/css">
	.st0{fill-rule:evenodd;clip-rule:evenodd;fill:#121212;}
</style>
<g>
	<path class="st0" d="M12.3,1H1.7C0.8,1,0,1.8,0,2.7v6.6C0,10.2,0.8,11,1.7,11h3.8v0.5C5.5,11.8,5.3,12,5,12s-0.5,0.2-0.5,0.5
		C4.5,12.8,4.7,13,5,13h4c0.3,0,0.5-0.2,0.5-0.5C9.5,12.2,9.3,12,9,12s-0.5-0.2-0.5-0.5V11h3.8c0.9,0,1.7-0.8,1.7-1.7V2.7
		C14,1.8,13.2,1,12.3,1z M6.4,12c0.1-0.2,0.1-0.3,0.1-0.5V11h1v0.5c0,0.2,0,0.3,0.1,0.5H6.4z M13,9.3c0,0.4-0.3,0.7-0.7,0.7H1.7
		C1.3,10,1,9.7,1,9.3V2.7C1,2.3,1.3,2,1.7,2h10.6C12.7,2,13,2.3,13,2.7V9.3z"/>
	<path class="st0" d="M8.3,3C8.1,3.1,8,3.3,8,3.5v4.1C8,7.8,8.1,7.9,8.2,8c0.1,0,0.2,0.1,0.3,0.1c0.1,0,0.2,0,0.2-0.1l1-0.5l0.6,1.2
		C10.4,8.9,10.6,9,10.8,9c0.1,0,0.2,0,0.2-0.1c0.2-0.1,0.3-0.4,0.2-0.7l-0.6-1.2l0.9-0.4c0.1-0.1,0.2-0.2,0.3-0.4
		c0-0.2,0-0.3-0.1-0.4C8.7,2.9,8.7,2.9,8.3,3z M9,6.8V4.7c0.4,0.4,0.9,0.9,1.4,1.4L9,6.8z"/>
</g>
</svg>
